X: 440
M: 6/4
L: 1/4
K: D
|: f |\
e>d c/d/  e2a | e>f e/d/ c2c | d>cB B2A | A3- A2a |\
a/g/f/e/d dfa | Bcd      cde | AGF  Edc | d3  D2 :|

